X:617
T:Miss Davidson
R:Reel
C:Nathaniel Gow
B:The Athole Collection
M:C|
L:1/8
K:F
c|~f2 af ffaf|~f2 af gddg|~f2 af gfaf|gefd cAA:|
|:c|AFcF A2 Fc|dfcA AGGc|1 AFcF A2 Fc|dfcf AFF:|2
AFcF dF cf|egce fFF||

